X:1
T:Fulton Street, 87.87.87.87.87
T:Fulton Street, 87.87.87.87.87
T:C. W. Newton, 1881
T:Public Domain Courtesy of the Cyber Hymnal™
C:C. W. Newton, 1881
Z:Public Domain
Z:Courtesy of the Cyber Hymnal™
%%score ( 1 2 ) ( 3 4 )
L:1/8
Q:1/4=100
M:4/4
K:Bb
V:1 treble 
V:2 treble 
V:3 bass 
V:4 bass 
V:1
 [Fd]2 [Fc]2 [FB][FA][EG][EB] | [DF]4 [B,D]4 | [CE]2 [A,C]2 [DF][CE][B,D][A,C] | [B,D]6 z2 | %4
 [Fd]2 [Fc]2 [FB][FA][EG][EB] | [DF]4 [B,D]4 | [DB]2 [DB]2 [DA][DG][DF][^C=E] | D6 z2 | %8
 [EF]2 [EA]2 [Ec]F[DB][Ec] | [Fd]4 [DB]4 | [EB]2 [EG]2 E[EF][EG]E | [DF]6 z2 | %12
 [Fd]2 [_Af]2 [Ge][Gd][Gc][GB] | [FB]4 [FA]4 | [=EA]2 [Ed]2 [Ec][EB][EA][EG] | F6 z2 | %16
 [DF]2 [DF]2 [B,D][DF][DB][Fd] | [_Af]4 [Ge]4 | [Fd]2 [DF]2 [CE][DF][EG][EA] | [DB]8 |] %20
V:2
 x8 | x8 | x8 | x8 | x8 | x8 | x8 | D6 x2 | x5 F x2 | x8 | x4 E x E x | x8 | x8 | x8 | x8 | F6 x2 | %16
 x8 | x8 | x8 | x8 |] %20
V:3
 [B,,B,]2 [B,,A,]2 [D,B,][D,B,][E,B,][G,B,] | B,4 [B,,B,]4 | F,2 F,2 F,F,F,F, | [B,,F,]6 z2 | %4
 [B,,B,]2 [C,A,]2 [D,B,][D,B,][E,B,][G,B,] | B,4 [B,,B,]4 | G,2 G,2 [D,C][D,B,][D,A,][A,,G,] | %7
 [D,F,]6 z2 | [F,A,]2 [F,C]2 [F,A,][F,A,][B,,B,][B,,B,] | [B,,B,]4 [B,,B,]4 | %10
 [E,G,]2 [E,B,]2 [E,G,][E,A,][E,B,][E,G,] | [B,,B,]6 z2 | %12
 [B,,B,]2 [_B,,=B,]2 [C,C][D,B,][E,C][=E,C] | [F,D]4 [F,C]4 | %14
 [C,C]2 [C,B,]2 [C,A,][C,G,][C,C][C,B,] | [F,A,]6 z2 | %16
 [B,,B,]2 [B,,B,]2 [B,,B,][B,,B,][B,,B,][B,,B,] | [D,B,]4 [E,B,]4 | [F,B,]2 [F,B,]2 F,F,F,F, | %19
 [B,,F,]8 |] %20
V:4
 x8 | B,4 x4 | F,2 F,2 F,F,F,F, | x8 | x8 | B,4 x4 | G,2 G,2 x4 | x8 | x8 | x8 | x8 | x8 | x8 | %13
 x8 | x8 | x8 | x8 | x8 | x4 F,F,F,F, | x8 |] %20

